app/assets/images/close_light.svg

<?xml version="1.0" encoding="UTF-8" standalone="no"?>
<svg width="10px" height="10px" viewBox="0 0 10 10" version="1.1" xmlns="http://www.w3.org/2000/svg" xmlns:xlink="http://www.w3.org/1999/xlink" xmlns:sketch="http://www.bohemiancoding.com/sketch/ns">
    <!-- Generator: Sketch 3.4.1 (15681) - http://www.bohemiancoding.com/sketch -->
    <title>close</title>
    <desc>Created with Sketch.</desc>
    <defs></defs>
    <g id="Slides" stroke="none" stroke-width="1" fill="none" fill-rule="evenodd" sketch:type="MSPage">
        <g id="Slides::Index" sketch:type="MSArtboardGroup" transform="translate(-553.000000, -193.000000)" fill="#FFFFFF">
            <g id="close" sketch:type="MSLayerGroup" transform="translate(553.000000, 193.000000)">
                <g id="Group" sketch:type="MSShapeGroup">
                    <path d="M9.90878963,8.03378019 C9.90875057,8.03374113 9.90871151,8.03370207 9.90867245,8.03368254 L6.87503737,4.99998886 L9.90867245,1.96629519 C9.90871151,1.96625613 9.90875057,1.9662366 9.90878963,1.96619753 C9.94144591,1.93352173 9.96505921,1.89535764 9.98019594,1.85471307 C10.0216608,1.74361924 9.99800845,1.61367774 9.90867245,1.52434173 L8.47560497,0.0912742559 C8.38626897,0.00195778287 8.25636652,-0.0216750473 8.14525316,0.0197898275 C8.10462813,0.0349265575 8.06644451,0.0585398564 8.03374917,0.0911765996 C8.03374917,0.0912156621 8.03371011,0.0912351934 8.03367105,0.0912742559 L4.9999969,3.12498746 L1.96632276,0.0912937872 C1.9662837,0.0912547246 1.96626416,0.0912351934 1.9662251,0.0911961308 C1.9335493,0.0585593877 1.89538521,0.0349460888 1.85476018,0.0198093587 C1.74362728,-0.0216750473 1.61372484,0.00197731414 1.52438883,0.0912937872 L0.0913018256,1.5243808 C0.00196582129,1.6137168 -0.0216670089,1.74363877 0.0197978659,1.85473261 C0.0349541272,1.89535764 0.0585674261,1.93356079 0.0912041693,1.96621706 C0.0912432318,1.9662366 0.0912627631,1.96627566 0.0913018256,1.96631472 L3.1249955,4.99998886 L0.0913018256,8.03370207 C0.0912822943,8.03374113 0.0912432318,8.03376066 0.0912237005,8.03379973 C0.0585869574,8.06647553 0.0349736585,8.10463962 0.0197978659,8.14526465 C-0.0216865401,8.25635849 0.00196582129,8.38629999 0.0913018256,8.47563599 L1.52438883,9.90870347 C1.61374437,9.99803948 1.74364681,10.0216723 1.85476018,9.98020743 C1.89538521,9.96505117 1.93356883,9.94143787 1.96624463,9.90880113 C1.96626416,9.90876206 1.96630323,9.90874253 1.96634229,9.90870347 L5.00001643,6.8750098 L8.03369058,9.90870347 C8.03372964,9.908723 8.0337687,9.90876206 8.03380776,9.9087816 C8.0665031,9.94143787 8.10464766,9.96505117 8.14527269,9.98020743 C8.25638606,10.0216723 8.38632756,9.99803948 8.4756245,9.90870347 L9.90869198,8.47561646 C9.99802798,8.38628046 10.0216803,8.25633895 9.98021547,8.14524512 C9.96505921,8.10462009 9.94144591,8.066456 9.90878963,8.03378019 L9.90878963,8.03378019 Z" id="Shape"></path>
                </g>
            </g>
        </g>
    </g>
</svg>

<svg height="10" viewBox="0 0 10 10" width="10" xmlns="http://www.w3.org/2000/svg"><path d="m9.90878963 8.03378019c-.00003906-.00003906-.00007812-.00007812-.00011718-.00009765l-3.03363508-3.03369368 3.03363508-3.03369367c.00003906-.00003906.00007812-.00005859.00011718-.00009766.03265628-.0326758.05626958-.07083989.07140631-.11148446.04146486-.11109383.01781251-.24103533-.07152349-.33037134l-1.43306748-1.43306747c-.089336-.08931648-.21923845-.11294931-.33035181-.07148443-.04062503.01513673-.07880865.03875003-.11150399.07138677 0 .00003906-.00003906.00005859-.00007812.00009766l-3.03367415 3.0337132-3.03367414-3.03369367c-.00003906-.00003907-.0000586-.0000586-.00009766-.00009766-.0326758-.03263674-.07083989-.05625004-.11146492-.07138677-.1111329-.04148441-.24103534-.01783205-.33037135.07148443l-1.433087 1.43308701c-.08933601.089336-.11296884.21925797-.07150396.33035181.01515626.04062503.03876956.07882818.0714063.11148445.00003906.00001954.00005859.0000586.00009766.00009766l3.03369367 3.03367414-3.03369367 3.03371321c-.00001954.00003906-.0000586.00005859-.00007813.00009766-.03263674.0326758-.05625004.07083989-.07142583.11146492-.04148441.11109384-.01783205.24103534.07150396.33037134l1.433087 1.43306748c.08935554.08933601.21925798.11296883.33037135.07150396.04062503-.01515626.07880865-.03876956.11148445-.0714063.00001953-.00003907.0000586-.0000586.00009766-.00009766l3.03367414-3.03369367 3.03367415 3.03369367c.00003906.00001953.00007812.00005859.00011718.00007813.03269534.03265627.0708399.05626957.11146493.07142583.11111337.04146487.24105487.01783205.33035181-.07150396l1.43306748-1.43308701c.089336-.089336.11298832-.21927751.07152349-.33037134-.01515626-.04062503-.03876956-.07878912-.07142584-.11146493z" fill="#fff" fill-rule="evenodd" transform=""/></svg>
